public/flags/TR.svg

<svg fill="none" height="53" viewBox="0 0 61 53" width="61" xmlns="http://www.w3.org/2000/svg" xmlns:xlink="http://www.w3.org/1999/xlink"><mask id="a" height="43" maskUnits="userSpaceOnUse" width="59" x="1" y="3"><rect fill="#fff" height="42.5" rx="4.24286" width="59" x="1" y="3"/></mask><rect fill="#fff" height="42.5" rx="4.24286" width="59" x="1" y="3"/><g mask="url(#a)"><path d="m1 3h59v42.5h-59z" fill="#e92434"/><g clip-rule="evenodd" fill="#fff" fill-rule="evenodd"><path d="m41.0794 25.8828-2.5808 3.1556.1758-4.0867-3.7735-1.5002 3.9083-1.0942.2487-4.0828 2.2397 3.4104 3.9272-1.0231-2.5241 3.202 2.1784 3.4504z"/><path d="m37.6704 32.0786c-2.3134 2.995-5.9235 4.9213-9.9797 4.9213-6.9824 0-12.6428-5.7083-12.6428-12.75 0-7.0416 5.6604-12.75 12.6428-12.75 4.0562 0 7.6663 1.9264 9.9797 4.9214-1.7852-1.3086-4.0298-2.088-6.4678-2.088-5.8188 0-10.5358 4.4398-10.5358 9.9166 0 5.4769 4.717 9.9167 10.5358 9.9167 2.438 0 4.6826-.7794 6.4678-2.088z"/></g></g></svg>

<svg width="61" height="53" viewBox="0 0 61 53" fill="none" xmlns="http://www.w3.org/2000/svg">
<rect x="1" y="3" width="59" height="42.5" rx="4.24286" fill="white"/>
<mask id="mask0" mask-type="alpha" maskUnits="userSpaceOnUse" x="1" y="3" width="59" height="43">
<rect x="1" y="3" width="59" height="42.5" rx="4.24286" fill="white"/>
</mask>
<g mask="url(#mask0)">
<rect x="1" y="3" width="59" height="42.5" fill="#E92434"/>
<path fill-rule="evenodd" clip-rule="evenodd" d="M41.0794 25.8828L38.4986 29.0384L38.6744 24.9517L34.9009 23.4515L38.8092 22.3573L39.0579 18.2745L41.2976 21.6849L45.2248 20.6618L42.7007 23.8638L44.8791 27.3142L41.0794 25.8828V25.8828V25.8828V25.8828Z" fill="white"/>
<path fill-rule="evenodd" clip-rule="evenodd" d="M37.6704 32.0786C35.357 35.0736 31.7469 36.9999 27.6907 36.9999C20.7083 36.9999 15.0479 31.2916 15.0479 24.2499C15.0479 17.2083 20.7083 11.4999 27.6907 11.4999C31.7469 11.4999 35.357 13.4263 37.6704 16.4213C35.8852 15.1127 33.6406 14.3333 31.2026 14.3333C25.3838 14.3333 20.6668 18.7731 20.6668 24.2499C20.6668 29.7268 25.3838 34.1666 31.2026 34.1666C33.6406 34.1666 35.8852 33.3872 37.6704 32.0786Z" fill="white"/>
</g>
</svg>
